src/assets/userDetailImg3.svg

<svg width="72" height="72" viewBox="0 0 72 72" fill="none" xmlns="http://www.w3.org/2000/svg">
<circle cx="36" cy="36" r="35.5" fill="white" stroke="#DDDDDD"/>
<path d="M52.5 18H19.5C18.675 18 18 18.675 18 19.5C18 20.325 18.675 21 19.5 21H21V37.5C21 39.9825 23.0175 42 25.5 42H32.3775L25.9425 48.4425C25.3125 48.9825 25.2375 49.9275 25.7775 50.5575C26.3175 51.1875 27.2625 51.2625 27.8925 50.7225C27.9525 50.67 28.005 50.6175 28.0575 50.5575L34.5 44.1225V52.5C34.5 53.325 35.175 54 36 54C36.825 54 37.5 53.325 37.5 52.5V44.1225L43.9425 50.5575C44.5725 51.0975 45.5175 51.0225 46.0575 50.3925C46.5375 49.83 46.5375 49.005 46.0575 48.4425L39.6225 42H46.5C48.9825 42 51 39.9825 51 37.5V21H52.5C53.325 21 54 20.325 54 19.5C54 18.675 53.325 18 52.5 18ZM48 37.5C48 38.325 47.325 39 46.5 39H25.5C24.675 39 24 38.325 24 37.5V21H48V37.5Z" fill="#F6AE24"/>
<path d="M30 36C30.825 36 31.5 35.325 31.5 34.5V30C31.5 29.175 30.825 28.5 30 28.5C29.175 28.5 28.5 29.175 28.5 30V34.5C28.5 35.325 29.175 36 30 36Z" fill="#F6AE24"/>
<path d="M36 36C36.825 36 37.5 35.325 37.5 34.5V25.5C37.5 24.675 36.825 24 36 24C35.175 24 34.5 24.675 34.5 25.5V34.5C34.5 35.325 35.175 36 36 36Z" fill="#F6AE24"/>
<path d="M42 36C42.825 36 43.5 35.325 43.5 34.5V28.5C43.5 27.675 42.825 27 42 27C41.175 27 40.5 27.675 40.5 28.5V34.5C40.5 35.325 41.175 36 42 36Z" fill="#F6AE24"/>
</svg>

<svg xmlns="http://www.w3.org/2000/svg" width="72" height="72" fill="none"><circle cx="36" cy="36" r="35.5" fill="#fff" stroke="#DDD"/><path fill="#F6AE24" d="M52.5 18h-33c-.825 0-1.5.675-1.5 1.5s.675 1.5 1.5 1.5H21v16.5c0 2.483 2.017 4.5 4.5 4.5h6.877l-6.435 6.443a1.5 1.5 0 0 0-.165 2.114 1.498 1.498 0 0 0 2.28 0l6.443-6.434V52.5c0 .825.675 1.5 1.5 1.5s1.5-.675 1.5-1.5v-8.377l6.443 6.435a1.5 1.5 0 0 0 2.115-2.115L39.622 42H46.5c2.483 0 4.5-2.017 4.5-4.5V21h1.5c.825 0 1.5-.675 1.5-1.5s-.675-1.5-1.5-1.5M48 37.5c0 .825-.675 1.5-1.5 1.5h-21c-.825 0-1.5-.675-1.5-1.5V21h24z"/><path fill="#F6AE24" d="M30 36c.825 0 1.5-.675 1.5-1.5V30c0-.825-.675-1.5-1.5-1.5s-1.5.675-1.5 1.5v4.5c0 .825.675 1.5 1.5 1.5M36 36c.825 0 1.5-.675 1.5-1.5v-9c0-.825-.675-1.5-1.5-1.5s-1.5.675-1.5 1.5v9c0 .825.675 1.5 1.5 1.5M42 36c.825 0 1.5-.675 1.5-1.5v-6c0-.825-.675-1.5-1.5-1.5s-1.5.675-1.5 1.5v6c0 .825.675 1.5 1.5 1.5"/></svg>
